symbolic/64x64/apps/museeks.svg

<svg xmlns="http://www.w3.org/2000/svg" width="64" height="64" version="1">
 <path style="opacity:0.2" d="M 4.0508,32 C 4.039,32.334 4,32.662 4,33 4,48.512 16.488,61 32,61 47.512,61 60,48.512 60,33 60,32.662 59.96,32.334 59.95,32 59.422,47.042 47.174,59 32,59 16.8256,59 4.578,47.042 4.05,32 Z"/>
 <rect style="fill:#469ed7" width="56" height="56" x="4" y="4" rx="28" ry="28"/>
 <path style="opacity:0.2" d="m 40,19 -16,19 8,7 6,-6 0,8 8,0 0,-28 z"/>
 <path style="fill:#abfaff" d="m 40,18 -16,19 8,7 6,-6 0,8 8,0 0,-28 z"/>
 <path style="opacity:0.2" d="m 34,33 -8,7 -8,7 0,-28 8,7 z"/>
 <path style="fill:#ffffff" d="m 34,32 -8,7 -8,7 0,-28 8,7 z"/>
 <path style="opacity:0.2;fill:#ffffff" d="M 32 4 C 16.4896 4 4.0039062 16.488 4.0039062 32 C 4.0039062 32.113448 4.0151865 32.224113 4.0214844 32.335938 C 4.3729603 17.134181 16.712305 5 32 5 L 32.001953 5 C 47.289254 5 59.628982 17.134181 59.980469 32.335938 C 59.986759 32.224113 59.998047 32.113448 59.998047 32 C 59.998047 16.488 47.511953 4 32.001953 4 L 32 4 z"/>
</svg>

<svg xmlns="http://www.w3.org/2000/svg" width="64" height="64" version="1"><path style="opacity:.2" d="M4.05 32c-.011.334-.05.662-.05 1 0 15.512 12.488 28 28 28s28-12.488 28-28c0-.338-.04-.666-.05-1C59.422 47.042 47.174 59 32 59S4.578 47.042 4.05 32z"/><rect style="fill:#469ed7" width="56" height="56" x="4" y="4" rx="28" ry="28"/><path style="opacity:.2" d="M40 19 24 38l8 7 6-6v8h8V19z"/><path style="fill:#abfaff" d="M40 18 24 37l8 7 6-6v8h8V18z"/><path style="opacity:.2" d="m34 33-8 7-8 7V19l8 7z"/><path style="fill:#fff" d="m34 32-8 7-8 7V18l8 7z"/><path style="opacity:.2;fill:#fff" d="M32 4C16.49 4 4.004 16.488 4.004 32c0 .113.011.224.017.336C4.373 17.134 16.712 5 32 5h.002C47.289 5 59.629 17.134 59.98 32.336c.007-.112.018-.223.018-.336 0-15.512-12.486-28-27.996-28H32z"/></svg>
